X:7448
T:the Weaver's Hornpipe
O:england
M:3/2
L:1/8
K:D
P:1
D3 B  ABAF  ABAF| E2 g4 Bc dcBA |D3 B  ABAF  ABAF| D2 d4 Bc dcBA ||
P:2
d2 cB FGAF  E4  | E2 g4 Bc dcBA |d2 cB FGAF  E4  | D2 d4 Bc dcBA ||
P:3
defg  a2 F2 E4  | E2 g4 Bc dcBA |defg  a2 F2 E4  | D2 d4 Bc dcBA ||
P:4
d2 f2 a2 F2 E4  | E2 g4 Bc dcBA |dfaf  cded  EFGE| D2 d4 Bc dcBA |]


